!!!COM:	de Orto, Marbrianus
!!!CDT:	~1460///-1529//
!!!OPR:	Missa [Ad fugam]
!!!ONM:	2
!!!OTL:	Gloria
!!!AGN:	Mass; Gloria
!!!SCT:	Ort1006b
!!!SCA:	Ort1006b
!!!voices-OPR:	4
!!!voices:	4
**kern	**text	**kern	**text	**kern	**text	**kern	**text
*staff4	*staff4	*staff3	*staff3	*staff2	*staff2	*staff1	*staff1
*Ivox	*	*Ivox	*	*Ivox	*	*Ivox	*
*I"Bassus	*	*I"Tenor	*	*I"Altus	*	*I"Superius	*
*I'B	*	*I'T	*	*I'A	*	*I'S	*
*>[A,B,C,D]	*>[A,B,C,D]	*>[A,B,C,D]	*>[A,B,C,D]	*>[A,B,C,D]	*>[A,B,C,D]	*>[A,B,C,D]	*>[A,B,C,D]
*>A	*>A	*>A	*>A	*>A	*>A	*>A	*>A
*clefF4	*	*clefGv2	*	*clefGv2	*	*clefG2	*
*k[b-]	*	*k[b-e-]	*	*k[b-]	*	*k[b-]	*
*M3/1	*	*M3/1	*	*M3/1	*	*M3/1	*
*met(O)	*	*met(O)	*	*met(O)	*	*met(O)	*
=1-	=1-	=1-	=1-	=1-	=1-	=1-	=1-
!	!	!LO:TX:Z=8:t=(Tenor flat signature is editorial.)	!	!	!	!LO:TX:Z=8:t=Canon at the lower fifth (one breve)	!
!!section: Et in terra pax
!!!OMD: Et in terra pax
1F	Et	0.r	.	1r	.	0.r	.
2G\	in	.	.	1r	.	.	.
2A\	ter-	.	.	.	.	.	.
1B-	-ra	.	.	1d	Et	.	.
=2	=2	=2	=2	=2	=2	=2	=2
1A	.	0.r	.	2e\	in	0.r	.
.	.	.	.	2f\	ter-	.	.
1G	.	.	.	1B-	-ra	.	.
2.F\	pax,	.	.	2c\	.	.	.
.	.	.	.	2d\	.	.	.
8E\L	.	.	.	.	.	.	.
8D\J	.	.	.	.	.	.	.
=3	=3	=3	=3	=3	=3	=3	=3
1C	.	0.r	.	1e-i	pax,	1g	Et
2r	.	.	.	1d	.	2a/	in
2GG/	ho-	.	.	.	.	2b-\	ter-
2.AA/	-mi-	.	.	2r	.	2.cc\	-ra
.	.	.	.	2c\	ho-	.	.
4BB-/	-ni-	.	.	.	.	8b-/L	.
.	.	.	.	.	.	8a/J	.
=4	=4	=4	=4	=4	=4	=4	=4
2.C/	-bus,	1c	Et	2.e-i\	-mi-	1g	.
8BB-/L	.	.	.	8d\L	.	.	.
8AA/J	.	.	.	8c\J	.	.	.
2GG/	.	2d\	in	1B-	-ni-	1b-	pax,
2G\	bo-	2e-\	ter-	.	.	.	.
2F\	-nae	2.f\	-ra	1c	-bus,	1a	.
2F\	vo-	.	.	.	.	.	.
.	.	8e-\L	.	.	.	.	.
.	.	8d\J	.	.	.	.	.
=5	=5	=5	=5	=5	=5	=5	=5
2F\	-lun-	1c	.	1r	.	2r	.
2E\	-ta-	.	.	.	.	2g/	ho-
1C	-tis,	1e-	pax,	1c	bo-	2g/	-mi-
.	.	.	.	.	.	2g/	-ni-
2r	.	1d	.	2.f\	.	2a/	-bus,
2D\	Lau-	.	.	.	.	4g/	.
.	.	.	.	8e\L	.	4f/	.
.	.	.	.	8d\J	.	.	.
=6	=6	=6	=6	=6	=6	=6	=6
1AA	-da-	2r	.	2c\	.	1e	.
.	.	2c\	ho-	2A/	-nae	.	.
1AA	-mus	2c\	-mi-	1e	vo-	1r	.
.	.	2c\	-ni-	.	.	.	.
2.BB-/	te,	2d\	-bus,	1d	-lun-	1f	bo-
.	.	4c\	.	.	.	.	.
4C/	.	4B-\	.	.	.	.	.
=7	=7	=7	=7	=7	=7	=7	=7
1D	.	1A	.	1d	-ta-	1f	-nae
1E-	.	1r	.	1G	.	1g	.
2r	.	1B-	bo-	1d	-tis,	2f/	vo-
2BB-/	Be-	.	.	.	.	2d/	-lun-
=8	=8	=8	=8	=8	=8	=8	=8
2D\	.	1B-	-nae	1r	.	2f/	-ta-
2E-i\	.	.	.	.	.	2g/	.
1C	-ne-	1c	.	2G/	Lau-	1e	-tis,
.	.	.	.	2c\	.	.	.
2.G\	-di-	2B-\	vo-	4d\	-da-	2r	.
.	.	.	.	4c\	.	.	.
.	.	2G/	-lun-	4B-\	.	2d/	Lau-
4F\	.	.	.	4A/	.	.	.
=9	=9	=9	=9	=9	=9	=9	=9
4E\	.	2B-\	-ta-	2G/	.	1g	-da-
4D\	.	.	.	.	.	.	.
2C/	.	2c\	.	2e-i\	-mus	.	.
1D	.	1A	-tis,	1d	te,	1f	-mus
2.C/	.	2r	.	2G/	Be-	1g	te,
.	.	2G/	Lau-	[2c\	.	.	.
4D\	.	.	.	.	.	.	.
=10	=10	=10	=10	=10	=10	=10	=10
2E\	-ci-	1c	-da-	2c\]	.	1r	.
2F\	-mus	.	.	2A/	-ne-	.	.
1G	te,	1B-	-mus	2d\	-di-	2r	.
.	.	.	.	[1.G	-ci-	2d/	Be-
2.C/	A-	1c	te,	.	.	2.e/	-ne-
4D\	-do-	.	.	.	.	4f/	-di-
=11	=11	=11	=11	=11	=11	=11	=11
2.E\	-ra-	1r	.	2G/]	.	2g/	-ci-
.	.	.	.	2c\	-mus	2e/	-mus
4C/	.	.	.	.	.	.	.
1G	-mus	2r	.	1B-	te,	1d	te,
.	.	2G/	Be-	.	.	.	.
1F	te,	2.A/	-ne-	2.c\	A-	2r	.
.	.	.	.	.	.	2f/	A-
.	.	4B-\	-di-	4d\	.	.	.
=12	=12	=12	=12	=12	=12	=12	=12
1r	.	2c\	-ci-	2e\	.	2g/	-do-
.	.	2A/	-mus	2f\	-do-	2a/	-ra-
1.E-	Glo-	1G	te,	2.g\	-ra-	1b-	-mus
.	.	.	.	4f\	.	.	.
.	.	2r	.	2e-\	.	1g	te,
2G\	-ri-	2B-\	A-	2d\	-mus	.	.
=13	=13	=13	=13	=13	=13	=13	=13
2.F\	-fi-	2c\	-do-	1f	te,	1r	.
.	.	2d\	-ra-	.	.	.	.
8E-i\L	.	.	.	.	.	.	.
8D\J	.	.	.	.	.	.	.
1C	.	1e-	-mus	1g	.	2.cc\	Glo-
.	.	.	.	.	.	4b-\	-ri-
2.F\	-ca-	1c	te,	2r	.	4a/	-fi-
.	.	.	.	.	.	4g/	.
.	.	.	.	[2f\	Glo-	[2a/	-ca-
4E-i\	.	.	.	.	.	.	.
=14	=14	=14	=14	=14	=14	=14	=14
2.D\	-mus	1r	.	4f\]	.	4a/]	.
.	.	.	.	4e-i\	.	4g/	.
.	.	.	.	2.d\	.	4f/	-mus
4C/	.	.	.	.	.	4e-i/	.
1BB-	te,	2.f\	Glo-	.	.	1d	te,
.	.	.	.	4c\	.	.	.
.	.	.	.	2.B-\	.	.	.
.	.	4e-\	-ri-	.	.	.	.
2r	.	4d\	-fi-	.	.	1r	.
.	.	4c\	.	8A/L	.	.	.
.	.	.	.	8G/J	.	.	.
2BB-/	Glo-	[2d\	-ca-	[2F/	.	.	.
=15	=15	=15	=15	=15	=15	=15	=15
1D	-ri-	4d\]	.	2F/]	.	0.r	.
.	.	4c\	.	.	.	.	.
.	.	4B-\	-mus	2F/	-ri-	.	.
.	.	4A/	.	.	.	.	.
2.E-i\	-fi-	1G	te,	2G/	-fi-	.	.
.	.	.	.	1B-	-ca-	.	.
4D\	.	.	.	.	.	.	.
4C/	.	1r	.	.	.	.	.
4BB-/	.	.	.	.	.	.	.
[2C/	-ca-	.	.	2G/	.	.	.
=16	=16	=16	=16	=16	=16	=16	=16
4C/]	.	0.r	.	2.c\	.	0.r	.
4BB-/	.	.	.	.	.	.	.
4AA/	.	.	.	.	.	.	.
4GG/	.	.	.	4B-\	.	.	.
1C	.	.	.	4A/	.	.	.
.	.	.	.	4G/	.	.	.
.	.	.	.	1A	.	.	.
1D	.	.	.	.	.	.	.
.	.	.	.	[2B-\	.	.	.
=17	=17	=17	=17	=17	=17	=17	=17
2GG/	.	0.r	.	2B-\]	.	1r	.
2BB-/	.	.	.	1G	.	.	.
1AA	-mus	.	.	.	.	1r	.
.	.	.	.	2F#i/	-mus	.	.
2GG/	te,	.	.	1G	te,	2d/	Gra-
2BB-/	Gra-	.	.	.	.	2d/	-ti-
=18	=18	=18	=18	=18	=18	=18	=18
2C/	-ti-	1r	.	2r	.	1g	-as
2E-i\	-as	.	.	2G/	Gra-	.	.
2D\	a-	1r	.	2A/	-ti-	2f/	a-
2D\	-gi-	.	.	2B-\	-as	2f/	-gi-
1C	-mus	2G/	Gra-	2.c\	a-	2.e/	-mus
.	.	2G/	-ti-	.	.	.	.
.	.	.	.	4B-\	.	4d/	.
=19	=19	=19	=19	=19	=19	=19	=19
1C	ti-	1c	-as	2A/	.	4e/	ti-
.	.	.	.	.	.	4f/	.
.	.	.	.	1G	.	2.g/	.
1GG	-bi,	2B-\	a-	.	.	.	.
.	.	.	.	.	.	8f/L	.
.	.	.	.	.	.	8e/J	.
.	.	2B-\	-gi-	2G/	-gi-	2d/	.
1AA	prop-	2.A/	-mus	2.E/	-mus	1c	-bi,
.	.	4G/	.	4D/	.	.	.
=20	=20	=20	=20	=20	=20	=20	=20
1C	-ter	4A/	ti-	4E/	.	1r	.
.	.	4B-\	.	4F/	.	.	.
.	.	2.c\	.	1G	.	.	.
1E	ma-	.	.	.	.	1g	prop-
.	.	8B-/L	.	.	.	.	.
.	.	8A/J	.	.	.	.	.
.	.	2G/	.	2c\	ti-	.	.
2D\	-gnam	1F	-bi,	2d\	.	2.a/	-ter
[2F\	glo-	.	.	2c\	.	.	.
.	.	.	.	.	.	4b-\	.
=21	=21	=21	=21	=21	=21	=21	=21
2F\]	.	1r	.	1A	-bi,	2cc\	ma-
2F\	-ri-	.	.	.	.	4b-\	.
.	.	.	.	.	.	4a/	.
1E	-am,	1c	prop-	1r	.	1g	-gnam
2r	.	2.d\	-ter	2B-\	prop-	2.f/	glo-
[2D\	glo-	.	.	2A/	.	.	.
.	.	4e-\	.	.	.	4g/	-ri-
=22	=22	=22	=22	=22	=22	=22	=22
2D\]	.	2f\	ma-	1F	-ter	2a/	-am
2BB-/	-ri-	4e-\	.	.	.	2.b-\	tu-
.	.	4d\	.	.	.	.	.
1F	-am,	1c	-gnam	2r	.	.	.
.	.	.	.	.	.	8a/L	.
.	.	.	.	.	.	8g/J	.
.	.	.	.	2F/	ma-	2a/	.
2r	.	2.B-\	glo-	2G/	-gnam	1d	-am,
[2D\	glo-	.	.	4F/	glo-	.	.
.	.	4c\	-ri-	4G/	.	.	.
=23	=23	=23	=23	=23	=23	=23	=23
2D\]	.	2d\	-am	4A/	.	1r	.
.	.	.	.	4B-\	.	.	.
2C/	-ri-	2.e-\	tu-	2c\	.	.	.
1F	-am	.	.	2A/	-ri-	2r	.
.	.	8d\L	.	.	.	.	.
.	.	8c\J	.	.	.	.	.
.	.	2d\	.	2A/	-am	2f/	Do-
2.E-\	tu-	1G	-am,	4B-\	tu-	2g/	-mi-
.	.	.	.	4G/	.	.	.
.	.	.	.	[2g\	.	2b-\	-ne
4G\	.	.	.	.	.	.	.
=24	=24	=24	=24	=24	=24	=24	=24
1D	-am	1r	.	2g\]	.	1a	De-
.	.	.	.	2f#i\	.	.	.
2.E-i\	Do-	2r	.	0g	-am,	1g	-us,
.	.	2B-\	Do-	.	.	.	.
4D\	-mi-	.	.	.	.	.	.
1C	-ne	2c\	-mi-	.	.	2r	.
.	.	2e-\	-ne	.	.	[2cc\	rex
=25	=25	=25	=25	=25	=25	=25	=25
1G	De-	1d	De-	2.g\	Do-	2cc\]	.
.	.	.	.	.	.	2b-\	cae-
.	.	.	.	4f\	.	.	.
1C	-us	1c	-us,	4e\	.	1cc	-le-
.	.	.	.	4d\	.	.	.
.	.	.	.	1c	.	.	.
2F\	rex	2r	.	.	.	1a	-stis,
2D\	cae-	[2f\	rex	2F/	-mi-	.	.
=26	=26	=26	=26	=26	=26	=26	=26
1C	-le-	2f\]	.	2G/	-ne	1r	.
.	.	2e-\	cae-	2A/	De-	.	.
2BB-/	-stis,	1f	-le-	2B-\	-us	2r	.
2F\	De-	.	.	2c\	rex	1a	De-
1G	.	1d	-stis,	2B-\	.	.	.
.	.	.	.	4A/	cae-	2g/	.
.	.	.	.	4G/	.	.	.
=27	=27	=27	=27	=27	=27	=27	=27
0D	-us	1r	.	2.F/	-le-	1a	.
.	.	.	.	4G/	.	.	.
.	.	2r	.	2A/	-stis,	1f	-us,
.	.	1d	De-	2B-\	De-	.	.
2D\	Pa-	.	.	2A/	.	2r	.
2E-i\	.	2c\	.	2G/	.	[2g/	Pa-
=28	=28	=28	=28	=28	=28	=28	=28
1D	-ter	1d	.	1A	.	2g/]	.
.	.	.	.	.	.	2f/	.
1GG	om-	1B-	-us,	1G	.	2g/	.
.	.	.	.	.	.	4f/	.
.	.	.	.	.	.	4e/	.
2BB-/	-ni-	2r	.	1F	.	2d/	.
2AA/	.	[2c\	Pa-	.	.	2c/	.
=29	=29	=29	=29	=29	=29	=29	=29
1GG	-po-	2c\]	.	1G	-us,	1d	-ter
.	.	2B-\	.	.	.	.	.
1C	-tens,	2c\	.	1r	.	4c/	om-
.	.	.	.	.	.	4d/	.
.	.	4B-\	.	.	.	4e/	.
.	.	4A/	.	.	.	4f/	.
1r	.	2G/	.	[1d	Pa-	2g/	-ni-
.	.	2F/	.	.	.	2a/	-po-
=30	=30	=30	=30	=30	=30	=30	=30
1r	.	1G	-ter	1d]	.	1b-	-tens,
1D	Do-	4F/	om-	1f	.	1a	.
.	.	4G/	.	.	.	.	.
.	.	4A/	.	.	.	.	.
.	.	4B-\	.	.	.	.	.
2C/	-mi-	2c\	-ni-	2e\	.	1r	.
2BB-/	-ne	2d\	-po-	2f\	.	.	.
=31	=31	=31	=31	=31	=31	=31	=31
1C	Fi-	1e-	-tens,	1c	-ter	2.g/	Do-
.	.	.	.	.	.	4g/	-mi-
1GG	-li	1d	.	2B-\	om-	2g/	-ne
.	.	.	.	1d	-ni-	2g/	Fi-
2D\	u-	1r	.	.	.	2f/	-li
2E\	-ni-	.	.	2B-\	-po-	2g/	u-
=32	=32	=32	=32	=32	=32	=32	=32
2.F\	-ge-	2.c\	Do-	1A	-tens,	2a/	.
.	.	.	.	.	.	4g/	-ni-
4G\	-ni-	4c\	-mi-	.	.	4f/	.
1A	-te,	2c\	-ne	2r	.	2e/	-ge-
.	.	2c\	Fi-	2c\	Do-	2e/	-ni-
2r	.	2B-\	-li	[1f	.	2d/	-te,
[2F\	Je-	2c\	u-	.	.	[2a/	Je-
=33	=33	=33	=33	=33	=33	=33	=33
2F\]	.	2d\	.	2f\]	.	2a/]	.
2G\	.	4c\	-ni-	2e\	-mi-	1g	-su
.	.	4B-\	.	.	.	.	.
1D	-su	2A/	-ge-	1d	-ne	.	.
.	.	2A/	-ni-	.	.	2f#i/	Chri-
2G\	Chri-	2G/	-te,	2.B-\	De-	1g	-ste,
[2B-\	.	[2d\	Je-	.	.	.	.
.	.	.	.	4A/	.	.	.
=34	=34	=34	=34	=34	=34	=34	=34
2B-\]	.	2d\]	.	2G/	.	0.r	.
1F	.	1c	-su	2A/	.	.	.
.	.	.	.	2F/	-us	.	.
2G\	.	2B-\	Chri-	1B-	a-	.	.
1F	-ste,	1c	-ste,	.	.	.	.
.	.	.	.	2A/	.	.	.
=35	=35	=35	=35	=35	=35	=35	=35
2G\	Do-	0.r	.	2B-\	-gnus	1r	.
2D\	-mi-	.	.	1d	De-	.	.
1E-i	-ne	.	.	.	.	1r	.
.	.	.	.	2c\	.	.	.
2.D\	De-	.	.	2d\	-i,	1a	Do-
.	.	.	.	[2f\	Fi-	.	.
4Eni\	.	.	.	.	.	.	.
=36	=36	=36	=36	=36	=36	=36	=36
1F	-us	1r	.	4f\]	.	2a/	-mi-
.	.	.	.	4e\	.	.	.
.	.	.	.	2.c\	.	2a/	-ne
1C	a-	1r	.	.	.	1cc	De-
.	.	.	.	4d\	.	.	.
.	.	.	.	2e-i\	-li-	.	.
1D	.	1d	Do-	1d	-us	2f/	-us
.	.	.	.	.	.	2f/	a-
=37	=37	=37	=37	=37	=37	=37	=37
2GG/	-gnus	2d\	-mi-	1.B-	Pa-	2g/	-gnus
2.BB-/	De-	2d\	-ne	.	.	2f/	De-
.	.	1f	De-	.	.	1d	-i,
4C/	.	.	.	.	.	.	.
2D\	.	.	.	2A/	.	.	.
2E-i\	.	2B-\	-us	2G/	.	2r	.
2D\	-i	2B-\	a-	2F/	.	2f/	Fi-
=38	=38	=38	=38	=38	=38	=38	=38
2C/	Fi-	2c\	-gnus	2G/	-tris.	2e/	-li-
2D\	.	2B-\	De-	2r	.	1d	.
1E-i	-li-	1G	-i,	1r	.	.	.
.	.	.	.	.	.	2c/	-us
2D\	-us	2r	.	1r	.	2f/	Pa-
2G\	Pa-	2B-\	Fi-	.	.	2g/	.
=39	=39	=39	=39	=39	=39	=39	=39
2F\	.	2A/	-li-	0.r	.	2a/	.
2G\	.	1G	.	.	.	2b-\	.
2A\	.	.	.	.	.	2.cc\	.
4G\	.	2F/	-us	.	.	.	.
4F\	.	.	.	.	.	8b-/L	.
.	.	.	.	.	.	8a/J	.
1E	.	2B-\	Pa-	.	.	1g	.
.	.	2c\	.	.	.	.	.
=40	=40	=40	=40	=40	=40	=40	=40
0.Dl	-tris.	0.dl	-tris.	0.Al	tris.	0.fl	-tris.
!!LO:LB:i:g=z
=41||	=41||	=41||	=41||	=41||	=41||	=41||	=41||
*>B	*>B	*>B	*>B	*>B	*>B	*>B	*>B
*clefF4	*	*clefGv2	*	*clefGv2	*	*clefG2	*
*k[b-]	*	*k[b-e-]	*	*k[b-]	*	*k[b-]	*
*M2/1	*	*M2/1	*	*M2/1	*	*M2/1	*
*met(C|)	*	*met(C|)	*	*met(C|)	*	*met(C|)	*
!!section: Qui tollis
!!!OMD: Qui tollis
1.G	Qui	0r	.	0r	.	0r	.
4F\	.	.	.	.	.	.	.
4E-i\	.	.	.	.	.	.	.
=42	=42	=42	=42	=42	=42	=42	=42
2D\	tol-	0r	.	0r	.	0r	.
2F\	.	.	.	.	.	.	.
2E-i\	.	.	.	.	.	.	.
4D\	.	.	.	.	.	.	.
4C/	.	.	.	.	.	.	.
=43	=43	=43	=43	=43	=43	=43	=43
1BB-	-lis,	0r	.	1.d	Qui	0r	.
1r	.	.	.	.	.	.	.
.	.	.	.	4c\	.	.	.
.	.	.	.	4B-\	.	.	.
=44	=44	=44	=44	=44	=44	=44	=44
1F	pec-	0r	.	2A/	tol-	0r	.
.	.	.	.	2c\	.	.	.
1G	.	.	.	2B-\	.	.	.
.	.	.	.	4A/	.	.	.
.	.	.	.	4G/	.	.	.
=45	=45	=45	=45	=45	=45	=45	=45
2.A\	-ca-	0r	.	1F	-lis,	0r	.
4c\	.	.	.	.	.	.	.
2B-\	.	.	.	2r	.	.	.
4A\	-ta	.	.	[2d\	pec-	.	.
4G\	.	.	.	.	.	.	.
=46	=46	=46	=46	=46	=46	=46	=46
2F\	mun-	0r	.	2d\]	.	0r	.
1G	.	.	.	4c\	.	.	.
.	.	.	.	4B-\	.	.	.
.	.	.	.	1A	.	.	.
2F#i\	.	.	.	.	.	.	.
=47	=47	=47	=47	=47	=47	=47	=47
1G	.	0r	.	2G/	-ca-	0r	.
.	.	.	.	1B-	.	.	.
1D	-di,	.	.	.	.	.	.
.	.	.	.	2A/	.	.	.
=48	=48	=48	=48	=48	=48	=48	=48
2r	.	0r	.	2G/	.	0r	.
2E-\	mi-	.	.	1B-	.	.	.
2D\	-se-	.	.	.	.	.	.
[2E-i\	-re-	.	.	2G/	-ta	.	.
=49	=49	=49	=49	=49	=49	=49	=49
2E-\]	.	0r	.	1c	mun-	0r	.
2C/	.	.	.	.	.	.	.
1D	-re	.	.	2B-\	.	.	.
.	.	.	.	2A/	.	.	.
=50	=50	=50	=50	=50	=50	=50	=50
2GG/	no-	0r	.	1d	-di,	0r	.
1BB-	.	.	.	.	.	.	.
.	.	.	.	2G/	mi-	.	.
2AA/	.	.	.	2c\	.	.	.
=51	=51	=51	=51	=51	=51	=51	=51
2GG/	.	0r	.	2B-\	-se-	0r	.
1BB-	.	.	.	2.d\	-re-	.	.
.	.	.	.	4c\	.	.	.
2GG/	.	.	.	2B-\	.	.	.
=52	=52	=52	=52	=52	=52	=52	=52
1C	.	0r	.	2A/	.	0r	.
.	.	.	.	1G	.	.	.
2BB-/	.	.	.	.	.	.	.
2AA/	.	.	.	[2A/	.	.	.
=53	=53	=53	=53	=53	=53	=53	=53
1D	.	0r	.	4A/]	.	0r	.
.	.	.	.	4G/	.	.	.
.	.	.	.	2F/	.	.	.
2C/	.	.	.	2E/	.	.	.
[2D\	.	.	.	[2D/	-re	.	.
=54	=54	=54	=54	=54	=54	=54	=54
2D\]	.	0r	.	2D/]	.	0r	.
2F\	.	.	.	1d	no-	.	.
1E	.	.	.	.	.	.	.
.	.	.	.	2c\	.	.	.
=55	=55	=55	=55	=55	=55	=55	=55
2D\	.	0r	.	2d\	.	0r	.
1F	.	.	.	4c\	.	.	.
.	.	.	.	4B-\	.	.	.
.	.	.	.	2A/	.	.	.
2E\	.	.	.	[2B-\	.	.	.
=56	=56	=56	=56	=56	=56	=56	=56
2D\	.	0r	.	2B-\]	.	0r	.
1F	-bis,	.	.	2A/	.	.	.
.	.	.	.	2F/	-bis,	.	.
2BB-/	Qui	.	.	[2B-\	Qui	.	.
=57	=57	=57	=57	=57	=57	=57	=57
1E-i	tol-	0r	.	2B-\]	.	0r	.
.	.	.	.	2c\	.	.	.
2D\	.	.	.	2B-\	.	.	.
2C/	.	.	.	[2e-i\	tol-	.	.
=58	=58	=58	=58	=58	=58	=58	=58
1G	.	0r	.	2e-\]	.	0r	.
.	.	.	.	2d\	.	.	.
2C/	.	.	.	2e-i\	.	.	.
2F\	-lis	.	.	[2c\	.	.	.
=59	=59	=59	=59	=59	=59	=59	=59
2E-i\	pec-	0r	.	2c\]	.	0r	.
2.G\	-ca-	.	.	2B-\	.	.	.
.	.	.	.	2G/	.	.	.
4F\	.	.	.	.	.	.	.
2E-i\	.	.	.	[2B-\	.	.	.
=60	=60	=60	=60	=60	=60	=60	=60
2D\	.	0r	.	2B-\]	.	0r	.
1C	.	.	.	2c\	.	.	.
.	.	.	.	1A	-lis,	.	.
[2D\	.	.	.	.	.	.	.
=61	=61	=61	=61	=61	=61	=61	=61
4D\]	.	0r	.	2r	.	0r	.
4C/	.	.	.	.	.	.	.
2BB-/	.	.	.	1F	pec-	.	.
2AA/	.	.	.	.	.	.	.
[2GG/	-ta	.	.	[2B-\	-ca-	.	.
=62	=62	=62	=62	=62	=62	=62	=62
2GG/]	.	0r	.	2B-\]	.	0r	.
1G	mun-	.	.	4A/	.	.	.
.	.	.	.	4G/	.	.	.
.	.	.	.	2A/	.	.	.
2F\	.	.	.	[2d\	.	.	.
=63	=63	=63	=63	=63	=63	=63	=63
2G\	.	0r	.	4d\]	.	0r	.
.	.	.	.	4c\	.	.	.
1D	.	.	.	4B-\	.	.	.
.	.	.	.	4A/	.	.	.
.	.	.	.	2B-\	.	.	.
[2B-\	.	.	.	[2G/	-ta	.	.
=64	=64	=64	=64	=64	=64	=64	=64
2B-\]	.	0r	.	2G/]	.	0r	.
4A\	.	.	.	1g	mun-	.	.
4G\	.	.	.	.	.	.	.
1A	.	.	.	.	.	.	.
.	.	.	.	2f#i\	.	.	.
=65	=65	=65	=65	=65	=65	=65	=65
0Gl	-di.	0r	.	0gl	-di.	0r	.
!!LO:LB:i:g=z
=66||	=66||	=66||	=66||	=66||	=66||	=66||	=66||
*>C	*>C	*>C	*>C	*>C	*>C	*>C	*>C
*clefF4	*	*clefGv2	*	*clefGv2	*	*clefG2	*
*k[b-]	*	*k[b-e-]	*	*k[b-]	*	*k[b-]	*
*M2/1	*	*M2/1	*	*M2/1	*	*M2/1	*
*met(C|)	*	*met(C|)	*	*met(C|)	*	*met(C|)	*
!!section: Suscipe deprecationem nostram
!!!OMD: Suscipe deprecationem nostram
!	!	!	!	!	!	!LO:TX:Z=8:t=Canon at the lower fifth (three breves)	!
0G	Su-	0r	.	1.d	Su-	0r	.
.	.	.	.	4c\	.	.	.
.	.	.	.	4B-\	.	.	.
=67	=67	=67	=67	=67	=67	=67	=67
0E-	.	0r	.	2c\	.	0r	.
.	.	.	.	4B-\	.	.	.
.	.	.	.	4A/	.	.	.
.	.	.	.	1G	.	.	.
=68	=68	=68	=68	=68	=68	=68	=68
0D	.	0r	.	1.F	.	0r	.
.	.	.	.	4G/	.	.	.
.	.	.	.	4A/	.	.	.
=69	=69	=69	=69	=69	=69	=69	=69
1D	-sci-	0r	.	1B-	-sci-	0r	.
1D	-pe,	.	.	1A	-pe,	.	.
=70	=70	=70	=70	=70	=70	=70	=70
1r	.	0r	.	1r	.	1r	.
1D	de-	.	.	[1d	de-	1f	de-
=71	=71	=71	=71	=71	=71	=71	=71
1D	-pre-	0r	.	2d\]	.	1f	-pre-
.	.	.	.	2c\	-pre-	.	.
1D	-ca-	.	.	2B-\	-ca-	1f	-ca-
.	.	.	.	2A/	-ti-	.	.
=72	=72	=72	=72	=72	=72	=72	=72
1D	-ti-	0r	.	1A	-o-	1f	-ti-
1C	-o-	.	.	2.c\	.	[1g	-o-
.	.	.	.	4B-\	.	.	.
=73	=73	=73	=73	=73	=73	=73	=73
1E-	.	1r	.	1G	.	2g/]	.
.	.	.	.	.	.	4f/	.
.	.	.	.	.	.	4e/	.
[1BB-	.	1B-	de-	1F	-nem	[1d	-nem
=74	=74	=74	=74	=74	=74	=74	=74
1BB-]	.	1B-	-pre-	2G/	no-	2d/]	.
.	.	.	.	2D/	.	2.f/	no-
1BB-	-nem	1B-	-ca-	2F/	.	.	.
.	.	.	.	.	.	4e/	.
.	.	.	.	2G/	.	[2d/	.
=75	=75	=75	=75	=75	=75	=75	=75
1BB-	no-	1B-	-ti-	2D/	.	2d/]	.
.	.	.	.	2d\	.	4c/	.
.	.	.	.	.	.	4B-/	.
1F	.	[1c	-o-	2c\	.	1A	-stram,
.	.	.	.	[2f\	.	.	.
=76	=76	=76	=76	=76	=76	=76	=76
1F	-stram,	2c\]	.	4f\]	.	1r	.
.	.	.	.	4e\	.	.	.
.	.	4B-\	.	4d\	.	.	.
.	.	4A/	.	4c\	.	.	.
2G\	Qui	[1G	-nem	2B-\	.	1d	Qui
[2B-\	se-	.	.	2G/	.	.	.
=77	=77	=77	=77	=77	=77	=77	=77
4B-\]	.	2G/]	.	1d	-stram,	1d	se-
4A\	.	.	.	.	.	.	.
2G\	.	2.B-\	no-	.	.	.	.
2.GG/	.	.	.	1r	.	[1g	.
.	.	4A/	.	.	.	.	.
.	.	[2G/	.	.	.	.	.
4AA/	.	.	.	.	.	.	.
=78	=78	=78	=78	=78	=78	=78	=78
2BB-/	.	2G/]	.	1r	.	1g]	.
2C/	.	4F/	.	.	.	.	.
.	.	4E-/	.	.	.	.	.
1D	-des,	1D	-stram,	[1A	Qui	1f	-des,
=79	=79	=79	=79	=79	=79	=79	=79
1D	ad	1r	.	2A/]	.	2r	.
.	.	.	.	2B-\	.	2f/	ad
2C/	.	1G	Qui	2c\	.	2e/	.
2BB-/	.	.	.	2d\	.	2d/	.
=80	=80	=80	=80	=80	=80	=80	=80
1E-i	dex-	1G	se-	2B-\	se-	1.g	dex-
.	.	.	.	1G	.	.	.
1C	-te-	[1c	.	.	.	.	.
.	.	.	.	[2c\	.	2e/	-te-
=81	=81	=81	=81	=81	=81	=81	=81
1F	-ram	1c]	.	2c\]	.	1a	-ram,
.	.	.	.	2A/	.	.	.
1BB-	Pa-	1B-	-des,	2.d\	.	1r	.
.	.	.	.	4c\	.	.	.
=82	=82	=82	=82	=82	=82	=82	=82
1E-i	-tris,	2r	.	4B-\	.	1g	Pa-
.	.	.	.	4A/	.	.	.
.	.	2B-\	ad	2G/	.	.	.
2r	.	2A/	.	2c\	.	2f/	.
[2E-i\	mi-	2G/	.	2B-\	.	[2g/	.
=83	=83	=83	=83	=83	=83	=83	=83
2E-\]	.	1.c	dex-	1G	-des,	2g/]	.
2C/	-se-	.	.	.	.	4f/	.
.	.	.	.	.	.	4e/	.
1F	-re-	.	.	2r	.	1a	-tris,
.	.	2A/	-te-	2c\	ad	.	.
=84	=84	=84	=84	=84	=84	=84	=84
2D\	.	1d	-ram,	2f\	dex-	2r	.
2G\	.	.	.	2d\	.	2b-\	mi-
2F\	.	1r	.	2f\	.	2a/	-se-
2E\	.	.	.	2g\	.	[2b-\	-re-
=85	=85	=85	=85	=85	=85	=85	=85
1F	-re,	1c	Pa-	1f	.	2b-\]	.
.	.	.	.	.	.	2a/	.
1r	.	2B-\	.	2d\	.	2b-\	.
.	.	[2c\	.	2e\	-te-	2g/	-re
=86	=86	=86	=86	=86	=86	=86	=86
1F	no-	2c\]	.	2f\	-ram	1a	no-
.	.	4B-\	.	2.F/	Pa-	.	.
.	.	4A/	.	.	.	.	.
1D	.	1d	-tris,	.	.	1f	.
.	.	.	.	4G/	.	.	.
.	.	.	.	4A/	.	.	.
.	.	.	.	4B-\	.	.	.
=87	=87	=87	=87	=87	=87	=87	=87
1C	.	2r	.	1c	-tris,	1g	-bis,
.	.	2e-\	mi-	.	.	.	.
[1G	-bis,	2d\	-se-	1r	.	1r	.
.	.	[2e-\	-re-	.	.	.	.
=88	=88	=88	=88	=88	=88	=88	=88
1G]	.	2e-\]	.	1B-	mi-	0r	.
.	.	2d\	.	.	.	.	.
2C/	Quo-	2e-\	.	4c\	-se-	.	.
.	.	.	.	4B-\	.	.	.
[2F\	.	2c\	-re	4A/	-re-	.	.
.	.	.	.	4G/	.	.	.
=89	=89	=89	=89	=89	=89	=89	=89
2F\]	.	1d	no-	2F/	-re	0r	.
2D\	.	.	.	2f\	no-	.	.
1G	.	1B-	.	2.d\	.	.	.
.	.	.	.	4e\	.	.	.
=90	=90	=90	=90	=90	=90	=90	=90
0F	-ni-	1c	-bis,	1f	-bis,	1.a	Quo-
.	.	1r	.	2r	.	.	.
.	.	.	.	2F/	Quo-	4g/	-ni-
.	.	.	.	.	.	4f/	.
=91	=91	=91	=91	=91	=91	=91	=91
1C	-am	0r	.	1G	-ni-	1e	-am
2r	.	.	.	1A	-am	1f	tu
2D\	tu	.	.	.	.	.	.
=92	=92	=92	=92	=92	=92	=92	=92
2AA/	so-	0r	.	2r	.	2e/	so-
2BB-/	-lus	.	.	1d	tu	2d/	.
1AA	sanc-	.	.	.	.	1e	-lus,
.	.	.	.	2c\	so-	.	.
=93	=93	=93	=93	=93	=93	=93	=93
[0D	.	1.d	Quo-	2d\	-lus	2r	.
.	.	.	.	1f	sanc-	2.d/	sanc-
.	.	.	.	.	.	4e/	.
.	.	4c\	-ni-	[2d\l	-tus.	[2f/	.
.	.	4B-\	.	.	.	.	.
=94	=94	=94	=94	=94	=94	=94	=94
0D_	.	1A	-am	0d_	.	4f/]	.
.	.	.	.	.	.	4g/	.
.	.	.	.	.	.	1a	.
.	.	1B-	tu	.	.	.	.
.	.	.	.	.	.	2g/	.
=95	=95	=95	=95	=95	=95	=95	=95
0D]	.	2A/	so-	0d_	.	2f/	.
.	.	2G/	-lus	.	.	1g	.
.	.	1A	sanc-	.	.	.	.
.	.	.	.	.	.	2f#i/	.
=96	=96	=96	=96	=96	=96	=96	=96
0GGl	-tus.	2r	.	0d]	.	0gl	-tus.
.	.	1.Gl	-tus.	.	.	.	.
!!LO:LB:i:g=z
=97||	=97||	=97||	=97||	=97||	=97||	=97||	=97||
*>D	*>D	*>D	*>D	*>D	*>D	*>D	*>D
*clefF4	*	*clefGv2	*	*clefGv2	*	*clefG2	*
*k[b-]	*	*k[b-e-]	*	*k[b-]	*	*k[b-]	*
*M3/1	*	*M3/1	*	*M3/1	*	*M3/1	*
*met(C3)	*	*met(C3)	*	*met(C3)	*	*met(C3)	*
!!section: Tu solus dominus
!!!OMD: Tu solus dominus
!	!	!	!	!	!	!LO:TX:Z=8:t=Canon at the lower fifth (one breve)	!
1.r	.	0.r	.	2G/	Tu	0.r	.
.	.	.	.	2B-\	so-	.	.
.	.	.	.	2c\	-lus	.	.
2G\	Tu	.	.	1d	Do-	.	.
2G\	so-	.	.	.	.	.	.
2G\	-lus	.	.	2B-\	.	.	.
=98	=98	=98	=98	=98	=98	=98	=98
1B-	Do-	0.r	.	1G	.	2d/	Tu
.	.	.	.	.	.	2d/	so-
2G\	-mi-	.	.	2B-\	.	2d/	-lus
2E-\	-nus,	.	.	1c	.	1g	Do-
1C	.	.	.	.	.	.	.
.	.	.	.	2c\	-mi-	2e/	-mi-
=99	=99	=99	=99	=99	=99	=99	=99
1.r	.	2G/	Tu	2B-\	-nus	1d	-nus,
.	.	2G/	so-	2G/	.	.	.
.	.	2G/	-lus	1g	tu	2r	.
1C	tu	1c	Do-	.	.	1r	.
.	.	.	.	2e\	so-	.	.
2D\	.	2A/	-mi-	2f\	.	2a/	tu
=100	=100	=100	=100	=100	=100	=100	=100
2GG/	so-	1G	-nus,	1g	-lus,	2b-\	so-
1G	.	.	.	.	.	2b-\	-lus
.	.	2r	.	2G/	Al-	2b-\	Al-
1F	-lus	1r	.	1A	-tis-	1cc	-tis-
2F\	Al-	2d\	tu	2A/	-si-	2a/	-si-
=101	=101	=101	=101	=101	=101	=101	=101
1C	-tis-	2e-\	so-	1c	-mus,	1g	-mus,
.	.	2e-\	-lus	.	.	.	.
2G\	.	2e-\	Al-	2B-\	.	2r	.
2F\	.	1f	-tis-	2c\	.	1a	Je-
1D	-si-	.	.	2d\	.	.	.
.	.	2d\	-si-	2A/	.	[2a/	-su
=102	=102	=102	=102	=102	=102	=102	=102
2F\	-mus	1c	-mus,	2r	.	2a/]	.
2C/	Je-	.	.	2c\	Je-	1g	Chri-
2E-i\	.	2r	.	2G/	-su	.	.
2D\	.	1d	Je-	2A/	Chri-	1f	-ste,
1BB-	.	.	.	4B-\	.	.	.
.	.	.	.	4A/	.	.	.
.	.	[2d\	-su	4G/	.	2r	.
.	.	.	.	4F/	.	.	.
=103	=103	=103	=103	=103	=103	=103	=103
2GG/	-su	2d\]	.	1G	.	0.r	.
1AA	Chri-	1c	Chri-	.	.	.	.
.	.	.	.	2F/	-ste,	.	.
2GG/	-ste,	1B-	-ste,	2r	.	.	.
2BB-/	Cum	.	.	2.G/	Cum	.	.
2C/	.	2r	.	.	.	.	.
.	.	.	.	4A/	.	.	.
=104	=104	=104	=104	=104	=104	=104	=104
2.D\	sanc-	0.r	.	4B-\	.	0.r	.
.	.	.	.	4c\	.	.	.
.	.	.	.	2.d\	.	.	.
4E\	.	.	.	.	.	.	.
2F\	.	.	.	.	.	.	.
.	.	.	.	4B-\	.	.	.
2D\	.	.	.	1B-	.	.	.
1C	-to	.	.	.	.	.	.
.	.	.	.	2A/	.	.	.
=105	=105	=105	=105	=105	=105	=105	=105
1BB-	Spi-	0.r	.	1B-	sanc-	2d/	Cum
.	.	.	.	.	.	2f/	.
2GG/	-ri-	.	.	2B-\	-to	2g/	.
2D\	-tu,	.	.	1F	Spi-	1a	sanc-
1r	.	.	.	.	.	.	.
.	.	.	.	[2B-\	.	2g/	-to
=106	=106	=106	=106	=106	=106	=106	=106
1r	.	2G/	Cum	2B-\]	.	1g	Spi-
.	.	2B-\	.	2G/	.	.	.
2r	.	2c\	.	2A/	.	2f#i/	-ri-
1G	in	1d	sanc-	2G/	.	1g	-tu,
.	.	.	.	2.g\	.	.	.
2E\	.	2c\	-to	.	.	2r	.
.	.	.	.	4f\	.	.	.
=107	=107	=107	=107	=107	=107	=107	=107
2F\	glo-	1c	Spi-	1f	.	1r	.
1G	.	.	.	.	.	.	.
.	.	2B-\	-ri-	2e\	.	2g/	in
1F	.	1c	-tu,	1f	.	2.a/	glo-
.	.	.	.	.	.	4b-\	.
2C/	-ri-	2r	.	2e\	-ri-	[2cc\	.
=108	=108	=108	=108	=108	=108	=108	=108
1F	-a	1r	.	1c	-tu,	4cc\]	.
.	.	.	.	.	.	4b-\	.
.	.	.	.	.	.	2a/	.
2E\	.	2c\	in	2r	.	2g/	-ri-
1D	De-	2.d\	glo-	2A/	in	2f/	-a,
.	.	.	.	2B-\	glo-	1r	.
.	.	4e-\	.	.	.	.	.
2D\	-i	[2f\	.	2A/	.	.	.
=109	=109	=109	=109	=109	=109	=109	=109
1BB-	Pa-	4f\]	.	2G/	.	4d/	De-
.	.	4e-\	.	.	.	4e/	.
.	.	2d\	.	2.F/	.	4f/	.
.	.	.	.	.	.	4g/	.
2AA/	.	2c\	-ri-	.	.	2a/	.
.	.	.	.	4E/	-ri-	.	.
2GG/	.	2B-\	-a,	2G/	-a,	1b-	.
2G\	.	1r	.	1r	.	.	.
2A\	.	.	.	.	.	2cc\	-i
=110	=110	=110	=110	=110	=110	=110	=110
1B-	.	4G/	De-	1.r	.	2.dd\	Pa-
.	.	4A/	.	.	.	.	.
.	.	4B-\	.	.	.	.	.
.	.	4c\	.	.	.	4cc\	.
2G\	-tris	2d\	.	.	.	4b-\	.
.	.	.	.	.	.	4a/	.
2.c\	A-	1e-	.	1r	.	2g/	-tris,
.	.	.	.	.	.	1r	.
4B-\	.	.	.	.	.	.	.
2A\	.	2f\	-i	2c\	De-	.	.
=111	=111	=111	=111	=111	=111	=111	=111
4G\	.	2.g\	Pa-	2d\	.	1.r	.
4F\	.	.	.	.	.	.	.
4E\	.	.	.	4c\	.	.	.
4D\	.	4f\	.	4d\	.	.	.
2C/	.	4e-\	.	2G/	-i	.	.
.	.	4d\	.	.	.	.	.
2E\	.	2c\	-tris,	2G/	Pa-	2g/	A-
1F	-men,	1r	.	2c\	.	1a	.
.	.	.	.	2A/	.	.	.
=112	=112	=112	=112	=112	=112	=112	=112
2D\	A-	1r	.	1d	.	2f/	.
2.A\	.	.	.	.	.	1e	-men,
.	.	2r	.	2c\	.	.	.
4G\	.	.	.	.	.	.	.
4F\	.	2c\	A-	1f	-tris,	2r	.
4E\	.	.	.	.	.	.	.
2D\	.	1d	.	.	.	2.a/	A-
2F\	.	.	.	2f\	A-	.	.
.	.	.	.	.	.	4g/	.
=113	=113	=113	=113	=113	=113	=113	=113
2G\	.	2B-\	.	0.dl	-men.	1g	.
1D	.	1A	.	.	.	.	.
.	.	.	.	.	.	2f#i/	.
1.GGl	-men.	2r	.	.	.	1.gl	-men.
.	.	1dl	-men.	.	.	.	.
==	==	==	==	==	==	==	==
*-	*-	*-	*-	*-	*-	*-	*-
!!!RDF**kern: l=long note in original notation
!!!RDF**kern: i=editorial accidental
!!!ENC:	Jesse Rodin 8/8/2013
!!!END:	2013/08/09/
!!!EED:	Jesse Rodin
!!!EEV:	2013/08/11/
!!!ONB:	Translated from MusicXML and edited on 2013/08/11/ by Craig Sapp
!!muse2ps: T^@{OPR}^u^@{ONM}{. }@{OTL}^C^@{COM}^i2I150v85,85,85,130Q16
